!!!COM: Palestrina, Giovanni Perluigi da
!!!OPR: Assumpta est Maria
!!!OTL: Sanctus
**kern	**kern	**kern	**kern	**kern	**kern
*Ibass	*Itenor	*Itenor	*Icalto	*Icant	*Icant
!Bassus	!Tenor 2	!Tenor 1	!Altus	!Cantus 2	!Cantus 1
*clefF4	*clefGv2	*clefGv2	*clefG2	*clefG2	*clefG2
*k[]	*k[]	*k[]	*k[]	*k[]	*k[]
*G:mix	*G:mix	*G:mix	*G:mix	*G:mix	*G:mix
*M4/2	*M4/2	*M4/2	*M4/2	*M4/2	*M4/2
=1	=1	=1	=1	=1	=1
0r	0r	0r	0r	1g	1r
.	.	.	.	2.b	1g
.	.	.	.	4cc	.
=2	=2	=2	=2	=2	=2
0r	0r	1g	1r	1dd	1.b
.	.	1e	1g	2ee	.
.	.	.	.	[2gg	2cc
=3	=3	=3	=3	=3	=3
0r	0r	1d	1a	2gg]	1dd
.	.	.	.	2ff#	.
.	.	[1c	2.cc	4gg	2ee
.	.	.	.	4ff#	.
.	.	.	.	4ee	4cc
.	.	.	4b	4dd	4dd
=4	=4	=4	=4	=4	=4
0r	0r	2c]	2a	2cc	4ee
.	.	.	.	.	4ff
.	.	2e	2g	4b	1gg
.	.	.	.	4cc	.
.	.	1d	1a	1dd	.
.	.	.	.	.	2ff#
=5	=5	=5	=5	=5	=5
0r	1c	2r	1cc	[0ee	[0gg
.	.	2.g	.	.	.
.	2.e	.	1c	.	.
.	.	4f	.	.	.
.	.	[2e	.	.	.
.	4f	.	.	.	.
=6	=6	=6	=6	=6	=6
1c	1g	4e]	1.e	1ee]	1gg]
.	.	4d	.	.	.
.	.	2.c	.	.	.
1A	1c	.	.	1r	1r
.	.	4A	.	.	.
.	.	[2c	2f	.	.
=7	=7	=7	=7	=7	=7
1G	1d	2c]	1g	1r	0r
.	.	2B	.	.	.
[1F	2.f	2A	2a	1cc	.
.	.	[2a	4f	.	.
.	8e	.	4g	.	.
.	8d	.	.	.	.
=8	=8	=8	=8	=8	=8
2F]	1c	2a]	4a	1cc	0r
.	.	.	4b	.	.
2A	.	2f	1cc	.	.
1G	1d	1g	.	2.gg	.
.	.	.	2b	.	.
.	.	.	.	4ff	.
=9	=9	=9	=9	=9	=9
0C	0c	2r	2.cc	4ee	1gg
.	.	.	.	4dd	.
.	.	2c	.	2.ee	.
.	.	.	8b	.	.
.	.	.	8a	.	.
.	.	2.e	1g	.	1ee
.	.	.	.	4dd	.
.	.	.	.	[2cc	.
.	.	4f	.	.	.
=10	=10	=10	=10	=10	=10
1r	1r	1g	2r	2cc]	2dd
.	.	.	2g	2b	2.gg
1C	1g	1c	2.e	1cc	.
.	.	.	.	.	4ff
.	.	.	.	.	[2ee
.	.	.	4f	.	.
=11	=11	=11	=11	=11	=11
2.E	1e	[0G	[0g	2b	4ee]
.	.	.	.	.	4dd
.	.	.	.	2g	1cc
4F	.	.	.	.	.
1G	1d	.	.	1dd	.
.	.	.	.	.	2b
=12	=12	=12	=12	=12	=12
0C	1c	1G]	0g]	1ee	1cc
.	2r	2r	.	2r	2r
.	[2c	[2g	.	[2cc	[2ee
=13	=13	=13	=13	=13	=13
0r	4c]	4g]	0r	4cc]	4ee]
.	4c	4g	.	4cc	4ee
.	2B	2g	.	2dd	2dd
.	1c	1g	.	1ee	1cc
=14	=14	=14	=14	=14	=14
0r	0G	2.g	0r	1dd	2b
.	.	.	.	.	4g
.	.	8f	.	.	4a
.	.	8e	.	.	.
.	.	[1d	.	4g	4b
.	.	.	.	4a	4cc
.	.	.	.	4b	4dd
.	.	.	.	4cc	4ee
=15	=15	=15	=15	=15	=15
0r	2r	1d]	0r	4dd	4ff
.	.	.	.	4ee	4ee
.	4d	.	.	1ff	4dd
.	4e	.	.	.	4cc
.	4f	1r	.	.	2dd
.	4g	.	.	.	.
.	4a	.	.	2ee	[2cc
.	4g	.	.	.	.
=16	=16	=16	=16	=16	=16
1r	2f	1r	1r	1dd	2cc]
.	2g	.	.	.	2b
2r	2c	2r	2r	1cc	[1cc
[2F	[2c	[2f	[2a	.	.
=17	=17	=17	=17	=17	=17
4F]	4c]	4f]	4a]	0r	0cc]
4F	4c	4f	4a	.	.
2E	2c	2g	2g	.	.
1F	1c	1a	1f	.	.
=18	=18	=18	=18	=18	=18
0C	4c	1g	2e	0r	0r
.	4d	.	.	.	.
.	4e	.	4c	.	.
.	4f	.	4d	.	.
.	2.g	4c	4e	.	.
.	.	4d	4f	.	.
.	.	4e	4g	.	.
.	4f	4f	4a	.	.
=19	=19	=19	=19	=19	=19
2r	2e	2g	2b	0r	0r
4F	4A	2a	2.cc	.	.
4G	4B	.	.	.	.
4A	4c	1e	.	.	.
4B	4d	.	4b	.	.
[2c	2e	.	4a	.	.
.	.	.	4g	.	.
=20	=20	=20	=20	=20	=20
2c]	2e	2c	4a	0r	0r
.	.	.	4g	.	.
2B	2.d	2d	1g	.	.
2A	.	2e	.	.	.
.	4c	.	.	.	.
2A	[2c	4d	2f#	.	.
.	.	4c	.	.	.
=21	=21	=21	=21	=21	=21
0G	2c]	1d	2.g	1r	1r
.	4B	.	.	.	.
.	4A	.	8f	.	.
.	.	.	8e	.	.
.	2B	2r	[1d	2r	2r
.	[2G	[2g	.	[2b	[2dd
=22	=22	=22	=22	=22	=22
0r	4G]	4g]	1d]	4b]	4dd]
.	4G	4g	.	4b	4dd
.	2d	2f#	.	2a	2dd
.	1G	1g	1r	1b	1dd
=23	=23	=23	=23	=23	=23
0r	0c	2.e	0r	2cc	1g
.	.	.	.	4cc	.
.	.	4f	.	4dd	.
.	.	1g	.	4ee	4cc
.	.	.	.	4ff	4dd
.	.	.	.	2gg	4ee
.	.	.	.	.	4ff
=24	=24	=24	=24	=24	=24
0r	2r	2.c	0r	2ee	4gg
.	.	.	.	.	4ff
.	4A	.	.	1cc	1ee
.	4B	4d	.	.	.
.	4c	4e	.	.	.
.	4d	4f	.	.	.
.	4e	[2g	.	4g	2ee
.	4f	.	.	4a	.
=25	=25	=25	=25	=25	=25
0r	2g	4g]	0r	4b	2.dd
.	.	4e	.	4cc	.
.	2f	2.a	.	4dd	.
.	.	.	.	8cc	4a
.	.	.	.	8dd	.
.	1e	.	.	2ee	4cc
.	.	4g	.	.	4b
.	.	[2g	.	2cc	4a
.	.	.	.	.	4g
=26	=26	=26	=26	=26	=26
1r	1d	2g]	1r	1dd	2.a
.	.	2f#	.	.	.
.	.	.	.	.	4a
2r	1G	2g	2r	1b	1g
[2G	.	[2d	[2g	.	.
=27	=27	=27	=27	=27	=27
4G]	2r	4d]	4g]	0r	0r
4G	.	4e	4g	.	.
2F	2.c	2f	2a	.	.
1G	.	1d	1g	.	.
.	4c	.	.	.	.
.	2B	.	.	.	.
=28	=28	=28	=28	=28	=28
1C	4c	2e	[0g	2r	2r
.	4d	.	.	.	.
.	4e	2.c	.	2.ee	2.cc
.	4f	.	.	.	.
2C	2g	.	.	.	.
.	.	4c	.	4ee	4cc
2G	[2G	2B	.	2dd	2dd
=29	=29	=29	=29	=29	=29
1C	2G]	1c	1g]	1cc	1ee
.	1c	.	.	.	.
2r	.	1F	1f	2cc	1a
4F	2c	.	.	4a	.
4G	.	.	.	4b	.
=30	=30	=30	=30	=30	=30
4A	1c	0r	2.e	4cc	2r
4B	.	.	.	4dd	.
1c	.	.	.	1ee	4cc
.	.	.	4f	.	4dd
.	2r	.	4g	.	4ee
.	.	.	4a	.	4ff
2B	2d	.	4b	2dd	[2gg
.	.	.	4g	.	.
=31	=31	=31	=31	=31	=31
2A	2e	2.c	4a	1cc	2gg]
.	.	.	4b	.	.
2A	2c	.	1cc	.	2ff
.	.	4d	.	.	.
[1G	1g	4e	.	2r	2ee
.	.	4f	.	.	.
.	.	[2g	2b	4g	4dd
.	.	.	.	4a	4cc
=32	=32	=32	=32	=32	=32
1G]	4G	2g]	2g	4b	4dd
.	4A	.	.	4cc	4cc
.	4B	2G	4d	2.dd	2b
.	4c	.	4e	.	.
2.D	1d	[1A	4f	.	1a
.	.	.	4g	4ee	.
.	.	.	[2a	[2ff	.
4E	.	.	.	.	.
=33	=33	=33	=33	=33	=33
2F	2c	2A]	2a]	2ff]	2r
2G	2B	1d	1g	2dd	2g
1D	1A	.	.	[1dd	1a
.	.	2d	2f#	.	.
=34	=34	=34	=34	=34	=34
1G	1G	1B	1g	1dd]	1b
2r	2r	2r	2r	1r	1r
2G	2g	2d	2b	.	.
=35	=35	=35	=35	=35	=35
2G	2g	2d	2b	0r	0r
2G	1g	2d	2b	.	.
1c	.	1e	1cc	.	.
.	[2a	.	.	.	.
=36	=36	=36	=36	=36	=36
1d	2a]	2f#	2a	0r	0r
.	1g	2g	2b-	.	.
1D	.	2a	1a	.	.
.	2f	[2d	.	.	.
=37	=37	=37	=37	=37	=37
2.G	2d	4d]	1.g	0r	0r
.	.	4c	.	.	.
.	2.e	4B	.	.	.
4F	.	4A	.	.	.
2E	.	2G	.	.	.
.	4d	.	.	.	.
2F	[2c	[2A	4f	.	.
.	.	.	4e	.	.
=38	=38	=38	=38	=38	=38
1D	2c]	2A]	1f	1r	1r
.	2B	4G	.	.	.
.	.	4F	.	.	.
1C	1c	2G	1e	2r	2r
.	.	[2c	.	[2cc	[2ee
=39	=39	=39	=39	=39	=39
0r	0r	2c]	0r	2cc]	2ee]
.	.	2g	.	2b	2dd
.	.	2g	.	2b	2dd
.	.	4d	.	[2dd	[2ff
.	.	4e	.	.	.
=40	=40	=40	=40	=40	=40
0r	0r	4f	0r	2dd]	2ff]
.	.	4g	.	.	.
.	.	1a	.	4cc	4ee
.	.	.	.	4dd	4dd
.	.	.	.	4ee	2cc
.	.	.	.	4ff	.
.	.	2g	.	[2ee	2b
=41	=41	=41	=41	=41	=41
0r	1r	1f	1.a	2ee]	2cc
.	.	.	.	2dd	4b
.	.	.	.	.	4a
.	2r	1e	.	[1ee	1b
.	[2e	.	2g	.	.
=42	=42	=42	=42	=42	=42
0r	2e]	0r	2g	1ee]	2r
.	2c	.	1cc	.	1ee
.	4c	.	.	1gg	.
.	4d	.	.	.	.
.	4e	.	4b	.	2ee
.	4f	.	4a	.	.
=43	=43	=43	=43	=43	=43
0r	2g	0r	2b	2gg	2dd
.	2a	.	2.cc	2ff#	2cc
.	1g	.	.	1gg	1dd
.	.	.	4b	.	.
.	.	.	4b	.	.
.	.	.	8a	.	.
.	.	.	8b	.	.
=44	=44	=44	=44	=44	=44
0r	1c	0r	2cc	1ee	1cc
.	.	.	2g	.	.
.	1r	.	1r	1r	1r
=45	=45	=45	=45	=45	=45
0C	0c	2.e	0g	0cc	0ee
.	.	4f	.	.	.
.	.	2g	.	.	.
.	.	[2G	.	.	.
=46	=46	=46	=46	=46	=46
1G	1d	4G]	1.g	1b	1dd
.	.	4A	.	.	.
.	.	2B	.	.	.
1C	1c	2G	.	2cc	1ee
.	.	[2c	2e	2g	.
=47	=47	=47	=47	=47	=47
1F	1A	2c]	1f	1a	1cc
.	.	2A	.	.	.
1G	2B	[1d	2d	4g	1b
.	.	.	.	4a	.
.	2G	.	[2g	4b	.
.	.	.	.	4cc	.
=48	=48	=48	=48	=48	=48
0D	0A	0d]	2g]	0dd	0a
.	.	.	4f#	.	.
.	.	.	4e	.	.
.	.	.	1f#	.	.
=49	=49	=49	=49	=49	=49
0G	0G	0d	0g	0dd	0b
==	==	==	==	==	==
*-	*-	*-	*-	*-	*-
!!!CDT: 1525/^1526/-1594/2/2
!!!OCY: Italia
!!!AGN: Mass (Parody)
!!!AST: renaissance, vocal
!!!ASW: Motet (Palestrina)
!!!PWK: Masses, Book 9
!!!RNB: Cadence finals: C
!!!YOR: Le Opere Complete, v. 25, p. 209
!!!YOO: Rome, Italy: Fratelli Scalera
!!!END: 1992//
!!!EED: John Miller
!!!YEC: Copyright 2000, John Miller
!!!YEN: United States of America
!!!YEM: Rights to all derivative electronic formats reserved.
!!!YEM: Refer to licensing agreement for further details.
!!!YEM: This file must be accompanied by the licensing agreement.
!!!YEM: A copy of the licensing agreement may be found at http://www.music-cog.ohio-state.edu/HumdrumDatabases/Palestrina/license.txt
!!!EMD: converted to Humdrum by Bret Aarden
